X:1
T:When Alexander Blues The Blues
T:Title Suggested by Lou Liebster When Alexander Blues The Blues 
T:Melody by HARRY D. SQUIRES 
T: Lyric by MAX C. FREEDMAN 
T:Copyright 1920 by Jack Mills, Inc. 152 West 45 St. New York City.
T:Copyright 1920 by Jack Mills, Inc. 152 West 45 St. New York City.
C:Harry D. Squires
Z:Max C. Freedman
Z:Copyright 1920 by Jack Mills, Inc. 152 West 45 St. New York City.
%%score 1 { ( 2 4 ) | ( 3 5 ) }
L:1/8
Q:1/4=114
M:2/2
K:Eb
V:1 treble nm="Voice"
V:2 treble nm="Piano"
V:4 treble 
V:3 bass 
V:5 bass 
V:1
"^Moderato" z/ z2 | z8 | z8 | z8 | z4 z3/2 || z/ z2 || z8 | z4!p! z3/2"^VOICE" ^F/ G3/2 F/ | %8
w: |||||||Now Al- ex-|
w: |||||||Sweet mu- sic|
 G B3- B3/2 ^F/ G3/2 F/ | G B3- B2 G3/2 A/ | B2 A2 G2 F2 | E4- E3/2 =B/ c3/2 B/ | %12
w: an- der _ now Al- ex-|and- er _ Was a|syn- co- pat- ing|man _ Now Al- ex-|
w: lin- gers, _ in all his|fin- gers _ When he|plays those pol- ished|keys _ He's so en-|
 c e3- e3/2 =B/ c3/2 B/ | c e3- e4 | z2 G ^F G2 G2 | G =F2 B- B3 G | A2 B2 A2 F3/2 ^F/ | G B3 B4 | %18
w: and- er _ now Al- ex-|and- er _|Blues the blues like|no one can. _ He|al- ways plays in the|min- or keys|
w: tranc- ing, _ He keeps you|dan- cing _|When he plays those|mel- o- dies _ And|when he's blu- ing Sweet|Mam- my Mine|
 A2 B2 A2 F2 | G B3 B4 | F2 G2 =A2 F2 | B2 c2 d3 G | c2 d2 c2 F2 | B4- B3/2 || %24
w: Plays the wierd- est|har- mon- ies|Rag- time is his|spe- cial- ty, He|cures the blues for|me. _|
w: In his syn- co-|pa- ted time|My thoughts go way|down be- low The|Mas- on Dix- on|line. _|
"^CHORUS  (Slow  and  Draggy)" B/ c3/2 B/ |: e4- e3/2 B/ _d3/2 c/ | B4- B3/2 G/ F3/2 E/ | %27
w: When Al- ex-|and- * er blues the|blues _ he's like a|
w: _ _ _|||
 F3/2 E/ F3/2 E/ F E3 | B4- B3/2 B/ c3/2 B/ | e4- e3/2 B/ _d3/2 c/ | B4- B3/2 G/ G3/2 ^F/ | %31
w: mes- sen- ger of hap- py|news _ When Al- ex-|and- * er blues the|blues _ You've got to|
w: ||||
 !^!G2 z2 z2 G2 | G F2 B- B3/2 B/ c3/2 B/ | e4- e3/2 _d/ B3/2 G/ | E4- E3/2 E/ F3/2 E/ | %35
w: step you|can't re- fuse _ He's got a|way _ That's all his|own _ He makes that|
w: ||||
 e4- e c A F | E4- E3/2 E/ F3/2 ^F/ | G B3 c B3 | d4- d3/2 =A/ B3/2 =B/ | c e3 d B3 |1 %40
w: old _ pi- a- no|moan _ He puts the|jazz- bo in your|shoes _ When Al- ex-|and- er blues the|
w: |||||
 e4- e3/2 B/ c3/2 B/ :|2 e4- e2 z2!fine! ||"^PATTER  (Slow)" G3/2 G/ G3/2 G/ ^F4 | %43
w: blues. _ When Al- ex \-|blues. _|When you're feel- ing blue,|
w: |||
 G3/2 G/ G3/2 G/ ^F4 | e3/2 c/ B3/2 G/ E3/2 F/ G3/2 E/ | G3/2 E/ E3/2 D/ E3 ^F | %46
w: don't know what to do|Let me in- tro- duce you to the|man who cures the blues And|
w: |||
 G3/2 G/ G3/2 G/ ^F4 | G3/2 G/ G3/2 G/ ^F4 | e3/2 c/ B3/2 G/ E3/2 F/ G3/2 E/ | %49
w: when you hear him play,|ev- 'ry night and day|He will help to drive the drear- y|
w: |||
 G3/2 E/ F3/2 D/ !fermata!E"^Slow"[Q:1/4=92]"^Andante" E F E || !fermata!G !fermata!G2 E- E2 F G | %51
w: wear- y blues a- way And when he|starts to blue _ that old|
w: ||
 A G A c !fermata!B3/2 |"^a tempo"[Q:1/4=114]"^Moderato" E/ F3/2 ^F/ | G B3 c B3 | %54
w: Swa- nee Riv- er too.|He puts the|jazz- bo in your|
w: |||
 d4- d3/2 =A/ B3/2 =B/ | c e3 d B3 | e4- e2 z2 |] %57
w: shoes _ When Al- ex-|and- er blues the|blues. _|
w: |||
V:2
!f! E<FF/ | [EG] [GB]3 [Gc] [FB]3 | d4- d>=AB>=B | c e3 d B3 | (((([EGBe]4 [egbe']3/2)))) || %5
!p! ^F<GF/ || [B,EG] [B,EGB]3 !arpeggio![A,D^FB]>GB>G | %7
"^Till ready" [A,EG] [A,EF]2 !arpeggio![A,DFB]- [A,DFB]>^FG>F | %8
 [B,EG] [B,EGB]3 !arpeggio!!>![A,D^FB]>^FG>F | [B,EG] [B,EGB]3 !arpeggio!!>![A,D^FB]2 G>A | %10
 [DB]2 [EA]2 [DG]2 [DF]2 | (E2 G2 B>)=Bc>B | [EAc] [EAce]3 !arpeggio![_DGce]>=B[Ec]>B | %13
 [EAc] [EAce]3 !arpeggio!!>![_DGce]4 | z2 [A,EG]^F [A,EG]2 [A,EG]2 | G =F2 !arpeggio!B- B>GB>G | %16
 [DA]2 [^CB]2 [DA]2 [B,DF]>^F | [EG] [DGB]3 B4 | [DA]2 [^CB]2 [DA]2 [B,DF]2 | [EG] [DGB]3 B4 | %20
 [=A,EF]2 [B,EG]2 [CE=A]2 [A,CF]2 | [DB]2 [DFc]2 d4 | [=Ec]2 [_Ed]2 [Ec]2 [EF]2 | B4- B3/2 || %24
 B<cB/ |: !arpeggio!!>![_DGBe]4- [DGBe]>B[EG_d]>c | B4- B>GF>E | F>EF>E F E3 | B4- B>Bc>B | %29
 !arpeggio!!>![_DGBe]4- [DGBe]>B[EG_d]>c | B4- B>GG>^F | !^![=A,EG]2 z2 z2 [A,EG]2 | %32
 [=A,EG] [A,EF]2 !arpeggio![_A,FB]- B>Bc>B | !arpeggio![_DGBe]4- [DGBe]>_dB>G | E4- E>E=F>E | %35
 [EAce]4- [EAce]cAF | [_A,E]4- [A,E]>EF>^F | [EG] [GB]3 [Gc] [FB]3 | d4- d>=AB>=B | c e3 d B3 |1 %40
 [EGBe]>B!<(!!>!c>B !>!e>B!>!c>B!<)! :|2!<(! [EGBe]>B!>![D^Fc]>!<)!!>(!B !>![EGBe]2 z2!>)! || %42
 ((([B,EG]4 [=A,E^F]4))) | ((([B,EG]4 [=A,E^F]4))) | e>cB>G E>FG>E | [CE=A]2 [B,D_A]2 [B,EG]2 z2 | %46
 ((([B,EG]4 [=A,E^F]4))) | ((([B,EG]4 [=A,E^F]4))) | e>cB>G E>FG>E | %49
 [=A,CE=A]2 [B,D_A]2 !fermata![B,EG]"_Slow" EFE || %50
 !fermata![B,_DEG] !fermata![B,DEG]2 [^F,=A,E]- [F,A,E]2 FG | %51
 [A,_EA][B,_DG][B,=DA][CEc] !fermata![B,EB]3/2 |"_a tempo" E<F^F/ | [EG] [GB]3 [Gc] [FB]3 | %54
 d4- d>=AB>=B | c e3 d B3 | [EGBe]>B!>![D^Fc]>B !>![EGBe]2 z2 |] %57
V:3
 z/ z2 | [E,,E,]2 [G,B,]2 [E,,E,]2 [_D,,_D,]2 | [C,,C,]2 [G,B,C]2 [G,,,G,,]2 [G,B,C]2 | %3
 [F,,F,]2 [F,=A,C]2 [B,,,B,,]2 [_A,B,D]2 | (([E,,E,]2 [B,,,B,,]2 E,,3/2)) || z/ z2 || %6
 [E,,E,]2 [G,B,]2 [B,,,B,,]2 [F,A,B,]2 | C,2 F,,2 [B,,,B,,]3/2 z/ z2 | %8
 [E,,E,]2 [G,B,]2 [B,,,B,,]2 [F,A,B,]2 | [E,,E,]2 [G,B,]2 [B,,,B,,]2 (=E,2 | F,2) (C2 B,2 A,2) | %11
 !arpeggio!G,4 [E,,E,]2 [E,G,_D]2 | [A,,A,]2 [E,A,C]2 [E,,E,]2 [E,G,_D]2 | %13
 [A,,A,]2 [E,A,C]2 [E,,E,]2 !^![=B,,,=B,,]2 | !^![C,,C,]2 [F,,C,]2 [F,,C,]2 [F,,C,]2 | %15
 (C,2 _C,2 B,,2) [F,A,]2 | (F,2 =E,2 F,2 A,2) | !arpeggio![E,,B,,G,]2 [G,B,]2 [B,,,B,,]2 [E,G,]2 | %18
 F,2 =E,2 F,2 A,2 | !arpeggio![E,,B,,G,]2 [G,B,]2 [B,,,B,,]2 [E,G,]2 | C,2 F,2 F,,2 E,2 | %21
 [B,,A,]2 [_A,,_A,]2 [G,,G,]2 [F,,F,]2 | G,2 _G,2 [F,,F,]2 [_E,F,A,]2 | (F,2 =E,2 F,3/2) || %24
 z2 z/ |: [E,,E,]2 [G,B,]2 [B,,,B,,]2 [E,G,B,]2 | [E,,E,]2 [G,B,]2 [B,,,B,,]2 [E,G,B,]2 | %27
 [A,,E,]4 [A,,F,]4 | [E,,E,]2 [G,B,]2 [B,,,B,,]2 [A,B,]2 | %29
 [E,,E,]2 [E,G,B,]2 [B,,,B,,]2 [E,G,B,]2 | [E,,E,]2 [E,G,B,]2 [B,,,B,,]2 [E,G,]2 | %31
 !^![F,,C,]2 z2 z2 [F,,C,]2 | (([C,,C,]2 [_C,,_C,]2 [B,,,B,,]2)) [F,A,]2 | %33
 [E,,B,,E,]2 [E,,B,,E,]2 [E,,B,,E,]2 [E,,B,,E,]2 | [E,,B,,E,]2 (3(G,A,=A,) B,3/2 z/ [E,,E,]2 | %35
 [A,,E,]2 [A,,E,]2 [A,,E,]2 [A,,E,]2 | [=B,,F,]4- [B,,F,]3/2 z/ z2 | %37
 [E,,E,]2 [G,B,]2 [E,,E,]2 [_D,,_D,]2 | [C,,C,]2 [G,B,C]2 [G,,,G,,]2 [G,B,C]2 | %39
 [F,,F,]2 [F,=A,C]2 [B,,,B,,]2 [_A,B,D]2 |1 [E,,E,]2 !>![B,,,B,,]2 !>![B,,,B,,]2 !>![B,,,B,,]2 :|2 %41
 [E,,E,]2 !>![B,,,B,,]2 !>![E,,E,]2 z2 || (B,,4 =B,,4) | (_B,,4 =B,,4) | %44
 [E,,E,]2 [G,B,]2 [B,,,B,,]2 [G,B,]2 | [F,,F,]2 B,,2 [E,,E,]2 z2 | (B,,4 =B,,4) | (_B,,4 =B,,4) | %48
 [E,,E,]2 [G,B,]2 [B,,,B,,]2 [G,B,]2 | [F,,F,]2 B,,2 !fermata![E,,E,] z z2 || %50
 [E,,B,,] [E,,B,,]2 =B,,- B,,2 _B,,2 | C,=E,F,A, !fermata!G,3/2 | z/ z2 | %53
 [E,,E,]2 [G,B,]2 [E,,E,]2 [_D,,_D,]2 | [C,,C,]2 [G,B,C]2 [G,,,G,,]2 [G,B,C]2 | %55
 [F,,F,]2 [F,=A,C]2 [B,,,B,,]2 [_A,B,D]2 | [E,,E,]2 !>![B,,,B,,]2 !>![E,,E,]2 z2 |] %57
V:4
 x5/2 | x8 | [=EB]>^FG>A B3/2 z/ z2 | [E=A]4 [D_A]4 | x11/2 || x5/2 || x8 | x8 | x4 x2 D2 | %9
 x6 ^C2 | x8 | E2 D2 _D2 E2 | x8 | x8 | x8 | [=A,E] [A,E]2 !arpeggio![A,DF]- [A,DF]2 D2 | x8 | %17
 x4 [CG]2 B,2 | x8 | x4 [CG]2 B,2 | x8 | x4 F>=B=A>G | x8 | (D2 [^C=E]2 [DF]3/2) || x5/2 |: x8 | %26
 [_DG]4- [DG]2 D2 | C2 C2 _C4 | G>ED>C B,2 [D^F]2 | x8 | [_DG]4- [DG]3/2 z/ B,2 | x8 | %32
 x4 [A,F]2 [DF]2 | x6 [_DG]2 | D2 (3([DE]F^F) G3/2 z/ D2 | x8 | x8 | x8 | [=EB]>^FG>=A B3/2 z/ z2 | %39
 [E=A]4 [D_A]4 |1 x2 [D^F]2 [DF]2 [DF]2 :|2 x8 || x8 | x8 | x8 | x8 | x8 | x8 | x8 | x8 || %50
 x6 [G,_D]2 | x11/2 | x5/2 | x8 | [EB]>^FG>=A B3/2 z/ z2 | [E=A]4 [D_A]4 | x8 |] %57
V:5
 x5/2 | x8 | x8 | x8 | x11/2 || x5/2 || x8 | x8 | x8 | x8 | B,,8 | !arpeggio![E,,B,,]4 x4 | x8 | %13
 x8 | x8 | x8 | B,,8 | x8 | B,,8 | x8 | x8 | x8 | C,4 x4 | B,,4- B,,3/2 || x5/2 |: x8 | x8 | x8 | %28
 x8 | x8 | x8 | x8 | x8 | x8 | x8 | x8 | x8 | x8 | x8 | x8 |1 x8 :|2 x8 || E,,8 | E,,8 | x8 | x8 | %46
 E,,8 | E,,8 | x8 | x8 || x8 | x11/2 | x5/2 | x8 | x8 | x8 | x8 |] %57

